X: 12890
T: Fete De L'Ours
R: reel
M: 4/4
K: Dmajor
|:DEFG A2A2|d2cB A2A2|DEFG A2A2|d4 A2z2:|
|:_c2c2B2B2|A2A2G2G2|B3cd2B2|A4 G2z2:|

